X:1
T:Golliwogg's Cakewalk (A section)
C:Claude Debussy
O:Children's Corner, L. 113
M:2/4
L:1/8
Q:1/4=160
K:Eb
% Ragtime cakewalk — A section, 16 bars. Range Eb4–D5.
B | E3 B | G2 E2 | E3 B | G4 |
B3 c | d2 B2 | B3 G | E4 |
E3 B | G2 E2 | E3 B | G2 A2 |
B3 c | d2 c2 | B3 A | E4 |]
